storage/app/icons/phosphoricons/duotone/house-line-duotone.svg

<svg xmlns="http://www.w3.org/2000/svg" fill="currentColor" viewBox="0 0 256 256"><path d="M216 116.69V216h-64v-64h-48v64H40v-99.31l82.34-82.35a8 8 0 0 1 11.32 0Z" opacity=".2"/><path d="M240 208h-16v-72l2.34 2.34A8 8 0 0 0 237.66 127l-98.35-98.32a16 16 0 0 0-22.62 0L18.34 127a8 8 0 0 0 11.32 11.31L32 136v72H16a8 8 0 0 0 0 16h224a8 8 0 0 0 0-16M48 120l80-80 80 80v88h-48v-56a8 8 0 0 0-8-8h-48a8 8 0 0 0-8 8v56H48Zm96 88h-32v-48h32Z"/></svg>

<svg xmlns="http://www.w3.org/2000/svg" viewBox="0 0 256 256" fill="currentColor"><path d="M216,116.69V216H152V152H104v64H40V116.69l82.34-82.35a8,8,0,0,1,11.32,0Z" opacity="0.2"/><path d="M240,208H224V136l2.34,2.34A8,8,0,0,0,237.66,127L139.31,28.68a16,16,0,0,0-22.62,0L18.34,127a8,8,0,0,0,11.32,11.31L32,136v72H16a8,8,0,0,0,0,16H240a8,8,0,0,0,0-16ZM48,120l80-80,80,80v88H160V152a8,8,0,0,0-8-8H104a8,8,0,0,0-8,8v56H48Zm96,88H112V160h32Z"/></svg>
